public/images/i_arrow_left.svg

<svg viewBox="0 0 168 168" xmlns="http://www.w3.org/2000/svg"><path d="m87.46 49.46-14.07 15.31a65.3 65.3 0 0 1 -6.15 6.15 47.8 47.8 0 0 1 -6.24 4.37h70.6v15.85h-70.6a39.1 39.1 0 0 1 6 4.37q2.81 2.46 6.36 6.15l14.1 15.34-12.98 11-40.31-44.79 40.31-44.82z" fill="#353535"/></svg>

<svg xmlns="http://www.w3.org/2000/svg" viewBox="0 0 168 168">
  <title>arrow_left</title>
  <g id="contenu">
    <path d="M87.46,49.46,73.39,64.77a65.3,65.3,0,0,1-6.15,6.15A47.8,47.8,0,0,1,61,75.29H131.6V91.14H61A39.1,39.1,0,0,1,67,95.51q2.81,2.46,6.36,6.15L87.46,117,74.48,128,34.17,83.21,74.48,38.39Z" style="fill: #353535"/>
  </g>
</svg>
